X: 7
M:6/8
L:1/8
K:G
uD|\
|:ud|\
gfg def | gfg a2g | =fef ded | cAG F2d |
gfg def | gfg a2g | =fed cA^F | (AG).G G2:|


